;FLAVOR:Marlin
;TIME:27027
;Filament used: 154.877m
;Layer height: 0.2
;MINX:22.453
;MINY:57.001
;MINZ:0.2
;MAXX:212.547
;MAXY:177.999
;MAXZ:67.8
;Generated with Cura_SteamEngine 5.2.1
M82 ;absolute extrusion mode


; Pre-Processed for Cancel-Object support by preprocess_cancellation v0.2.0
; 1 known objects
EXCLUDE_OBJECT_DEFINE NAME=cube_stl CENTER=116.824,117.498 POLYGON=[[25.878,60.426],[25.878,174.574],[209.122,174.574],[209.122,60.426]]
START_PRINT BED_TEMP=80 EXTRUDER_TEMP=220.0
G92 E0
G92 E0
G1 F1800 E-0.65
;LAYER_COUNT:339
;LAYER:0
M107
G1 F600 Z0.4
G0 F6000 X24.271 Y57.337 Z0.4
;TYPE:SKIRT
G1 F600 Z0.2
G1 F720 E0
G1 F4500 X24.743 Y57.151 E0.01898
G1 X25.239 Y57.041 E0.03799
G1 X25.597 Y57.011 E0.05144
G1 X25.918 Y57.002 E0.06345
G1 X208.661 Y57.001 E6.90127
G1 X209.359 Y57.011 E6.92739
G1 X209.865 Y57.059 E6.9464
G1 X210.356 Y57.184 E6.96536
G1 X210.822 Y57.386 E6.98437
G1 X211.251 Y57.658 E7.00337
G1 X211.631 Y57.994 E7.02235
G1 X211.954 Y58.385 E7.04133
G1 X212.212 Y58.823 E7.06035
G1 X212.398 Y59.295 E7.07933
G1 X212.507 Y59.79 E7.0983
G1 X212.537 Y60.145 E7.11163
G1 X212.546 Y60.465 E7.12361
G1 X212.547 Y174.078 E11.37474
G1 X212.538 Y174.805 E11.40194
G1 X212.492 Y175.31 E11.42092
G1 X212.367 Y175.802 E11.43991
G1 X212.166 Y176.269 E11.45894
G1 X211.895 Y176.698 E11.47792
G1 X211.56 Y177.079 E11.49691
G1 X211.169 Y177.402 E11.51588
G1 X210.732 Y177.661 E11.53489
G1 X210.26 Y177.848 E11.55389
G1 X209.765 Y177.958 E11.57286
G1 X209.403 Y177.989 E11.58646
G1 X209.082 Y177.998 E11.59847
G1 X26.343 Y177.999 E18.43614
G1 X25.645 Y177.99 E18.46226
G1 X25.14 Y177.943 E18.48123
G1 X24.648 Y177.818 E18.50023
G1 X24.182 Y177.617 E18.51922
G1 X23.753 Y177.346 E18.5382
G1 X23.372 Y177.01 E18.55721
G1 X23.049 Y176.62 E18.57616
G1 X22.79 Y176.183 E18.59517
G1 X22.604 Y175.711 E18.61415
G1 X22.494 Y175.215 E18.63316
G1 X22.463 Y174.852 E18.64679
G1 X22.454 Y174.519 E18.65926
G1 X22.453 Y60.856 E22.91226
G1 X22.462 Y60.191 E22.93714
G1 X22.509 Y59.686 E22.95612
G1 X22.635 Y59.194 E22.97513
G1 X22.836 Y58.728 E22.99412
G1 X23.107 Y58.299 E23.0131
G1 X23.443 Y57.919 E23.03208
G1 X23.834 Y57.595 E23.05108
G1 X24.271 Y57.337 E23.07007
G1 F1800 E22.42007
G1 F600 Z0.4
;MESH:cube.stl
EXCLUDE_OBJECT_START NAME=cube_stl
G0 F6000 X27.078 Y61.626 Z0.4
;TYPE:WALL-INNER
G1 F600 Z0.2
G1 F720 E23.07007
G1 F4500 X27.078 Y173.374 E26.78682
G1 X207.922 Y173.374 E32.80172
G1 X207.922 Y61.626 E36.51847
G1 X27.078 Y61.626 E42.53337
G0 F6000 X26.678 Y61.226
G1 F4500 X26.678 Y173.774 E46.27673
G1 X208.322 Y173.774 E52.31824
G1 X208.322 Y61.226 E56.0616
G1 X26.678 Y61.226 E62.1031
G0 F6000 X26.278 Y60.826
G1 F4500 X26.278 Y174.174 E65.87307
G1 X208.722 Y174.174 E71.94118
G1 X208.722 Y60.826 E75.71115
G1 X26.278 Y60.826 E81.77926
G0 F6000 X25.878 Y60.426
;TYPE:WALL-OUTER
G1 F4500 X25.878 Y174.574 E85.57584
G1 X209.122 Y174.574 E91.67056
G1 X209.122 Y60.426 E95.46714
G1 X25.878 Y60.426 E101.56186
G0 F6000 X25.878 Y60.626
G0 X26.548 Y61.096
G0 X27.178 Y62.03
G0 X27.482 Y62.03
;TYPE:SKIN
G1 F4500 X27.482 Y172.97 E105.71298
G1 X207.518 Y172.97 E112.4495
G1 X207.518 Y62.03 E116.60061
G1 X27.482 Y62.03 E123.33714
G1 F1800 E122.68714
G0 F6000 X27.178 Y62.03
G0 X27.25 Y173.202
G0 X28.282 Y173.274
G1 F720 E123.33714
G0 F6000 X28.282 Y172.744
G1 F4500 X27.706 Y172.168 E123.36762
G0 F6000 X27.706 Y171.532
G1 F4500 X28.918 Y172.744 E123.43175
G0 F6000 X29.554 Y172.744
G1 F4500 X27.706 Y170.895 E123.52957
G0 F6000 X27.706 Y170.259
G1 F4500 X30.191 Y172.744 E123.66107
G0 F6000 X30.827 Y172.744
G1 F4500 X27.706 Y169.622 E123.82625
G0 F6000 X27.706 Y168.986
G1 F4500 X31.464 Y172.744 E124.02511
G0 F6000 X32.1 Y172.744
G1 F4500 X27.706 Y168.35 E124.25762
G0 F6000 X27.706 Y167.713
G1 F4500 X32.736 Y172.744 E124.52382
G0 F6000 X33.373 Y172.744
G1 F4500 X27.706 Y167.077 E124.8237
G0 F6000 X27.706 Y166.44
G1 F4500 X34.009 Y172.744 E125.15726
G0 F6000 X34.646 Y172.744
G1 F4500 X27.706 Y165.804 E125.5245
G0 F6000 X27.706 Y165.168
G1 F4500 X35.282 Y172.744 E125.92539
G0 F6000 X35.918 Y172.744
G1 F4500 X27.706 Y164.531 E126.35997
G0 F6000 X27.706 Y163.895
G1 F4500 X36.555 Y172.744 E126.82823
G0 F6000 X37.191 Y172.744
G1 F4500 X27.706 Y163.258 E127.33017
G0 F6000 X27.706 Y162.622
G1 F4500 X37.828 Y172.744 E127.86579
G0 F6000 X38.464 Y172.744
G1 F4500 X27.706 Y161.986 E128.43507
G0 F6000 X27.706 Y161.349
G1 F4500 X39.1 Y172.744 E129.03802
G0 F6000 X39.737 Y172.744
G1 F4500 X27.706 Y160.713 E129.67466
G0 F6000 X27.706 Y160.076
G1 F4500 X40.373 Y172.744 E130.34498
G0 F6000 X41.01 Y172.744
G1 F4500 X27.706 Y159.44 E131.04898
G0 F6000 X27.706 Y158.804
G1 F4500 X41.646 Y172.744 E131.78664
G0 F6000 X42.282 Y172.744
G1 F4500 X27.706 Y158.167 E132.55798
G0 F6000 X27.706 Y157.531
G1 F4500 X42.919 Y172.744 E133.363
G0 F6000 X43.555 Y172.744
G1 F4500 X27.706 Y156.894 E134.2017
G0 F6000 X27.706 Y156.258
G1 F4500 X44.192 Y172.744 E135.07408
G0 F6000 X44.828 Y172.744
G1 F4500 X27.706 Y155.622 E135.98012
G0 F6000 X27.706 Y154.985
G1 F4500 X45.464 Y172.744 E136.91984
G0 F6000 X46.101 Y172.744
G1 F4500 X27.706 Y154.349 E137.89324
G0 F6000 X27.706 Y153.712
G1 F4500 X46.737 Y172.744 E138.90032
G0 F6000 X47.374 Y172.744
G1 F4500 X27.706 Y153.076 E139.94108
G0 F6000 X27.706 Y152.44
G1 F4500 X48.01 Y172.744 E141.0155
G0 F6000 X48.646 Y172.744
G1 F4500 X27.706 Y151.803 E142.1236
G0 F6000 X27.706 Y151.167
G1 F4500 X49.283 Y172.744 E143.26538
G0 F6000 X49.919 Y172.744
G1 F4500 X27.706 Y150.531 E144.44081
G0 F6000 X27.706 Y149.894
G1 F4500 X50.556 Y172.744 E145.64996
G0 F6000 X51.192 Y172.744
G1 F4500 X27.706 Y149.258 E146.89276
G0 F6000 X27.706 Y148.621
G1 F4500 X51.828 Y172.744 E148.16924
G0 F6000 X52.465 Y172.744
G1 F4500 X27.706 Y147.985 E149.4794
G0 F6000 X27.706 Y147.349
G1 F4500 X53.101 Y172.744 E150.82321
G0 F6000 X53.737 Y172.744
G1 F4500 X27.706 Y146.712 E152.20071
G0 F6000 X27.706 Y146.076
G1 F4500 X54.374 Y172.744 E153.61189
G0 F6000 X55.01 Y172.744
G1 F4500 X27.706 Y145.439 E155.05675
G0 F6000 X27.706 Y144.803
G1 F4500 X55.647 Y172.744 E156.53529
G0 F6000 X56.283 Y172.744
G1 F4500 X27.706 Y144.167 E158.04749
G0 F6000 X27.706 Y143.53
G1 F4500 X56.919 Y172.744 E159.59336
G0 F6000 X57.556 Y172.744
G1 F4500 X27.706 Y142.894 E161.17292
G0 F6000 X27.706 Y142.257
G1 F4500 X58.192 Y172.744 E162.78616
G0 F6000 X58.829 Y172.744
G1 F4500 X27.706 Y141.621 E164.43308
G0 F6000 X27.706 Y140.985
G1 F4500 X59.465 Y172.744 E166.11366
G0 F6000 X60.101 Y172.744
G1 F4500 X27.706 Y140.348 E167.82792
G0 F6000 X27.706 Y139.712
G1 F4500 X60.738 Y172.744 E169.57586
G0 F6000 X61.374 Y172.744
G1 F4500 X27.706 Y139.075 E171.35748
G0 F6000 X27.706 Y138.439
G1 F4500 X62.011 Y172.744 E173.17278
G0 F6000 X62.647 Y172.744
G1 F4500 X27.706 Y137.803 E175.02174
G0 F6000 X27.706 Y137.166
G1 F4500 X63.283 Y172.744 E176.90438
G0 F6000 X63.92 Y172.744
G1 F4500 X27.706 Y136.53 E178.8207
G0 F6000 X27.706 Y135.893
G1 F4500 X64.556 Y172.744 E180.7707
G0 F6000 X65.193 Y172.744
G1 F4500 X27.706 Y135.257 E182.75438
G0 F6000 X27.706 Y134.621
G1 F4500 X65.829 Y172.744 E184.77172
G0 F6000 X66.465 Y172.744
G1 F4500 X27.706 Y133.984 E186.82274
G0 F6000 X27.706 Y133.348
G1 F4500 X67.102 Y172.744 E188.90744
G0 F6000 X67.738 Y172.744
G1 F4500 X27.706 Y132.711 E191.02582
G0 F6000 X27.706 Y132.075
G1 F4500 X68.375 Y172.744 E193.17788
G0 F6000 X69.011 Y172.744
G1 F4500 X27.706 Y131.439 E195.3636
G0 F6000 X27.706 Y130.802
G1 F4500 X69.647 Y172.744 E197.583
G0 F6000 X70.284 Y172.744
G1 F4500 X27.706 Y130.166 E199.83608
G0 F6000 X27.706 Y129.529
G1 F4500 X70.92 Y172.744 E202.12284
G0 F6000 X71.557 Y172.744
G1 F4500 X27.706 Y128.893 E204.44329
G0 F6000 X27.706 Y128.257
G1 F4500 X72.193 Y172.744 E206.79739
G0 F6000 X72.829 Y172.744
G1 F4500 X27.706 Y127.62 E209.18517
G0 F6000 X27.706 Y126.984
G1 F4500 X73.466 Y172.744 E211.60663
G0 F6000 X74.102 Y172.744
G1 F4500 X27.706 Y126.347 E214.06177
G0 F6000 X27.706 Y125.711
G1 F4500 X74.739 Y172.744 E216.5506
G0 F6000 X75.375 Y172.744
G1 F4500 X27.706 Y125.075 E219.07307
G0 F6000 X27.706 Y124.438
G1 F4500 X76.011 Y172.744 E221.62923
G0 F6000 X76.648 Y172.744
G1 F4500 X27.706 Y123.802 E224.21908
G0 F6000 X27.706 Y123.165
G1 F4500 X77.284 Y172.744 E226.8426
G0 F6000 X77.921 Y172.744
G1 F4500 X27.706 Y122.529 E229.4998
G0 F6000 X27.706 Y121.893
G1 F4500 X78.557 Y172.744 E232.19066
G0 F6000 X79.193 Y172.744
G1 F4500 X27.706 Y121.256 E234.9152
G0 F6000 X27.706 Y120.62
G1 F4500 X79.83 Y172.744 E237.67343
G0 F6000 X80.466 Y172.744
G1 F4500 X27.706 Y119.983 E240.46533
G0 F6000 X27.706 Y119.347
G1 F4500 X81.103 Y172.744 E243.29092
G0 F6000 X81.739 Y172.744
G1 F4500 X27.706 Y118.711 E246.15016
G0 F6000 X27.706 Y118.074
G1 F4500 X82.375 Y172.744 E249.04308
G0 F6000 X83.012 Y172.744
G1 F4500 X27.706 Y117.438 E251.96968
G0 F6000 X27.706 Y116.802
G1 F4500 X83.648 Y172.744 E254.92994
G0 F6000 X84.285 Y172.744
G1 F4500 X27.706 Y116.165 E257.9239
G0 F6000 X27.706 Y115.529
G1 F4500 X84.921 Y172.744 E260.95152
G0 F6000 X85.557 Y172.744
G1 F4500 X27.706 Y114.892 E264.01283
G0 F6000 X27.706 Y114.256
G1 F4500 X86.194 Y172.744 E267.10781
G0 F6000 X86.83 Y172.744
G1 F4500 X27.706 Y113.62 E270.23645
G0 F6000 X27.706 Y112.983
G1 F4500 X87.466 Y172.744 E273.39877
G0 F6000 X88.103 Y172.744
G1 F4500 X27.706 Y112.347 E276.59477
G0 F6000 X27.706 Y111.71
G1 F4500 X88.739 Y172.744 E279.82445
G0 F6000 X89.376 Y172.744
G1 F4500 X27.706 Y111.074 E283.08781
G0 F6000 X27.706 Y110.438
G1 F4500 X90.012 Y172.744 E286.38483
G0 F6000 X90.648 Y172.744
G1 F4500 X27.706 Y109.801 E289.71553
G0 F6000 X27.706 Y109.165
G1 F4500 X91.285 Y172.744 E293.07991
G0 F6000 X91.921 Y172.744
G1 F4500 X27.706 Y108.528 E296.47798
G0 F6000 X27.706 Y107.892
G1 F4500 X92.558 Y172.744 E299.90972
G0 F6000 X93.194 Y172.744
G1 F4500 X27.706 Y107.256 E303.37512
G0 F6000 X27.706 Y106.619
G1 F4500 X93.83 Y172.744 E306.8742
G0 F6000 X94.467 Y172.744
G1 F4500 X27.706 Y105.983 E310.40696
G0 F6000 X27.706 Y105.346
G1 F4500 X95.103 Y172.744 E313.9734
G0 F6000 X95.74 Y172.744
G1 F4500 X27.706 Y104.71 E317.57353
G0 F6000 X27.706 Y104.074
G1 F4500 X96.376 Y172.744 E321.20731
G0 F6000 X97.012 Y172.744
G1 F4500 X27.706 Y103.437 E324.87477
G0 F6000 X27.706 Y102.801
G1 F4500 X97.649 Y172.744 E328.57591
G0 F6000 X98.285 Y172.744
G1 F4500 X27.706 Y102.164 E332.31074
G0 F6000 X27.706 Y101.528
G1 F4500 X98.922 Y172.744 E336.07924
G0 F6000 X99.558 Y172.744
G1 F4500 X27.706 Y100.892 E339.8814
G0 F6000 X27.706 Y100.255
G1 F4500 X100.194 Y172.744 E343.71724
G0 F6000 X100.831 Y172.744
G1 F4500 X27.706 Y99.619 E347.58677
G0 F6000 X27.706 Y98.982
G1 F4500 X101.467 Y172.744 E351.48997
G0 F6000 X102.104 Y172.744
G1 F4500 X27.706 Y98.346 E355.42685
G0 F6000 X27.706 Y97.71
G1 F4500 X102.74 Y172.744 E359.3974
G0 F6000 X103.376 Y172.744
G1 F4500 X27.706 Y97.073 E363.40162
G0 F6000 X27.706 Y96.437
G1 F4500 X104.013 Y172.744 E367.43952
G0 F6000 X104.649 Y172.744
G1 F4500 X27.706 Y95.8 E371.5111
G0 F6000 X27.706 Y95.164
G1 F4500 X105.286 Y172.744 E375.61637
G0 F6000 X105.922 Y172.744
G1 F4500 X27.706 Y94.528 E379.75529
G0 F6000 X27.706 Y93.891
G1 F4500 X106.558 Y172.744 E383.92789
G0 F6000 X107.195 Y172.744
G1 F4500 X27.706 Y93.255 E388.13418
G0 F6000 X27.706 Y92.618
G1 F4500 X107.831 Y172.744 E392.37414
G0 F6000 X108.468 Y172.744
G1 F4500 X27.706 Y91.982 E396.64779
G0 F6000 X27.706 Y91.346
G1 F4500 X109.104 Y172.744 E400.95509
G0 F6000 X109.74 Y172.744
G1 F4500 X27.706 Y90.709 E405.29607
G0 F6000 X27.706 Y90.073
G1 F4500 X110.377 Y172.744 E409.67074
G0 F6000 X111.013 Y172.744
G1 F4500 X27.706 Y89.436 E414.07908
G0 F6000 X27.706 Y88.8
G1 F4500 X111.65 Y172.744 E418.52111
G0 F6000 X112.286 Y172.744
G1 F4500 X27.706 Y88.164 E422.99679
G0 F6000 X27.706 Y87.527
G1 F4500 X112.922 Y172.744 E427.50616
G0 F6000 X113.559 Y172.744
G1 F4500 X27.706 Y86.891 E432.0492
G0 F6000 X27.706 Y86.255
G1 F4500 X114.195 Y172.744 E436.6259
G0 F6000 X114.832 Y172.744
G1 F4500 X27.706 Y85.618 E441.23631
G0 F6000 X27.706 Y84.982
G1 F4500 X115.468 Y172.744 E445.88037
G0 F6000 X116.104 Y172.744
G1 F4500 X27.706 Y84.345 E450.55811
G0 F6000 X27.706 Y83.709
G1 F4500 X116.741 Y172.744 E455.26954
G0 F6000 X117.377 Y172.744
G1 F4500 X27.706 Y83.073 E460.01462
G0 F6000 X27.706 Y82.436
G1 F4500 X118.014 Y172.744 E464.79341
G0 F6000 X118.65 Y172.744
G1 F4500 X27.706 Y81.8 E469.60585
G0 F6000 X27.706 Y81.163
G1 F4500 X119.286 Y172.744 E474.45197
G0 F6000 X119.923 Y172.744
G1 F4500 X27.706 Y80.527 E479.33178
G0 F6000 X27.706 Y79.891
G1 F4500 X120.559 Y172.744 E484.24524
G0 F6000 X121.195 Y172.744
G1 F4500 X27.706 Y79.254 E489.19238
G0 F6000 X27.706 Y78.618
G1 F4500 X121.832 Y172.744 E494.1732
G0 F6000 X122.468 Y172.744
G1 F4500 X27.706 Y77.981 E499.18771
G0 F6000 X27.706 Y77.345
G1 F4500 X123.105 Y172.744 E504.2359
G0 F6000 X123.741 Y172.744
G1 F4500 X27.706 Y76.709 E509.31774
G0 F6000 X27.706 Y76.072
G1 F4500 X124.377 Y172.744 E514.43326
G0 F6000 X125.014 Y172.744
G1 F4500 X27.706 Y75.436 E519.58246
G0 F6000 X27.706 Y74.799
G1 F4500 X125.65 Y172.744 E524.76535
G0 F6000 X126.287 Y172.744
G1 F4500 X27.706 Y74.163 E529.98191
G0 F6000 X27.706 Y73.527
G1 F4500 X126.923 Y172.744 E535.23214
G0 F6000 X127.559 Y172.744
G1 F4500 X27.706 Y72.89 E540.51604
G0 F6000 X27.706 Y72.254
G1 F4500 X128.196 Y172.744 E545.83362
G0 F6000 X128.832 Y172.744
G1 F4500 X27.706 Y71.617 E551.18489
G0 F6000 X27.706 Y70.981
G1 F4500 X129.469 Y172.744 E556.56983
G0 F6000 X130.105 Y172.744
G1 F4500 X27.706 Y70.345 E561.98844
G0 F6000 X27.706 Y69.708
G1 F4500 X130.741 Y172.744 E567.44072
G0 F6000 X131.378 Y172.744
G1 F4500 X27.706 Y69.072 E572.92668
G0 F6000 X27.706 Y68.435
G1 F4500 X132.014 Y172.744 E578.44633
G0 F6000 X132.651 Y172.744
G1 F4500 X27.706 Y67.799 E583.99966
G0 F6000 X27.706 Y67.163
G1 F4500 X133.287 Y172.744 E589.58664
G0 F6000 X133.923 Y172.744
G1 F4500 X27.706 Y66.526 E595.2073
G0 F6000 X27.706 Y65.89
G1 F4500 X134.56 Y172.744 E600.86165
G0 F6000 X135.196 Y172.744
G1 F4500 X27.706 Y65.253 E606.54968
G0 F6000 X27.706 Y64.617
G1 F4500 X135.833 Y172.744 E612.27138
G0 F6000 X136.469 Y172.744
G1 F4500 X27.706 Y63.981 E618.02675
G0 F6000 X27.706 Y63.344
G1 F4500 X137.105 Y172.744 E623.81579
G0 F6000 X137.742 Y172.744
G1 F4500 X27.706 Y62.708 E629.63852
G0 F6000 X27.889 Y62.255
G1 F4500 X138.378 Y172.744 E635.48521
G0 F6000 X139.015 Y172.744
G1 F4500 X28.526 Y62.255 E641.33191
G0 F6000 X29.162 Y62.255
G1 F4500 X139.651 Y172.744 E647.17861
G0 F6000 X140.287 Y172.744
G1 F4500 X29.798 Y62.255 E653.0253
G0 F6000 X30.435 Y62.255
G1 F4500 X140.924 Y172.744 E658.872
G0 F6000 X141.56 Y172.744
G1 F4500 X31.071 Y62.255 E664.7187
G0 F6000 X31.708 Y62.255
G1 F4500 X142.197 Y172.744 E670.56539
G0 F6000 X142.833 Y172.744
G1 F4500 X32.344 Y62.255 E676.41209
G0 F6000 X32.98 Y62.255
G1 F4500 X143.469 Y172.744 E682.25879
G0 F6000 X144.106 Y172.744
G1 F4500 X33.617 Y62.255 E688.10548
G0 F6000 X34.253 Y62.255
G1 F4500 X144.742 Y172.744 E693.95218
G0 F6000 X145.379 Y172.744
G1 F4500 X34.89 Y62.255 E699.79888
G0 F6000 X35.526 Y62.255
G1 F4500 X146.015 Y172.744 E705.64557
G0 F6000 X146.651 Y172.744
G1 F4500 X36.162 Y62.255 E711.49227
G0 F6000 X36.799 Y62.255
G1 F4500 X147.288 Y172.744 E717.33897
G0 F6000 X147.924 Y172.744
G1 F4500 X37.435 Y62.255 E723.18566
G0 F6000 X38.072 Y62.255
G1 F4500 X148.561 Y172.744 E729.03236
G0 F6000 X149.197 Y172.744
G1 F4500 X38.708 Y62.255 E734.87906
G0 F6000 X39.344 Y62.255
G1 F4500 X149.833 Y172.744 E740.72576
G0 F6000 X150.47 Y172.744
G1 F4500 X39.981 Y62.255 E746.57245
G0 F6000 X40.617 Y62.255
G1 F4500 X151.106 Y172.744 E752.41915
G0 F6000 X151.742 Y172.744
G1 F4500 X41.254 Y62.255 E758.26582
G0 F6000 X41.89 Y62.255
G1 F4500 X152.379 Y172.744 E764.11252
G0 F6000 X153.015 Y172.744
G1 F4500 X42.526 Y62.255 E769.95921
G0 F6000 X43.163 Y62.255
G1 F4500 X153.652 Y172.744 E775.80591
G0 F6000 X154.288 Y172.744
G1 F4500 X43.799 Y62.255 E781.65261
G0 F6000 X44.436 Y62.255
G1 F4500 X154.924 Y172.744 E787.49928
G0 F6000 X155.561 Y172.744
G1 F4500 X45.072 Y62.255 E793.34597
G0 F6000 X45.708 Y62.255
G1 F4500 X156.197 Y172.744 E799.19267
G0 F6000 X156.834 Y172.744
G1 F4500 X46.345 Y62.255 E805.03937
G0 F6000 X46.981 Y62.255
